packages/ffe-icons/icons/filled/md/looks_4.svg

<svg xmlns="http://www.w3.org/2000/svg" height="24" viewBox="0 -960 960 960" width="24"><path d="M530.001-450.001V-320q0 12.75 8.628 21.374 8.629 8.625 21.384 8.625 12.756 0 21.371-8.625 8.615-8.624 8.615-21.374v-320q0-12.75-8.628-21.375-8.629-8.624-21.384-8.624-12.756 0-21.371 8.624-8.615 8.625-8.615 21.375v130.001H429.999V-640q0-12.75-8.628-21.375-8.629-8.624-21.384-8.624-12.756 0-21.371 8.624-8.615 8.625-8.615 21.375v153.846q0 15.365 10.394 25.759t25.759 10.394h123.847Zm-317.692 310q-30.308 0-51.308-21t-21-51.308v-535.382q0-30.308 21-51.308t51.308-21h535.382q30.308 0 51.308 21t21 51.308v535.382q0 30.308-21 51.308t-51.308 21H212.309Z"/></svg>

<svg xmlns="http://www.w3.org/2000/svg" height="24" viewBox="0 -960 960 960" width="24"><path d="M530-450v130q0 12.75 8.63 21.37 8.63 8.63 21.38 8.63 12.76 0 21.37-8.63Q590-307.25 590-320v-320q0-12.75-8.63-21.37-8.63-8.63-21.38-8.63-12.76 0-21.37 8.63Q530-652.75 530-640v130H430v-130q0-12.75-8.63-21.37-8.63-8.63-21.38-8.63-12.76 0-21.37 8.63Q370-652.75 370-640v153.85q0 15.36 10.39 25.76Q390.79-450 406.15-450H530ZM212.31-140Q182-140 161-161q-21-21-21-51.31v-535.38Q140-778 161-799q21-21 51.31-21h535.38Q778-820 799-799q21 21 21 51.31v535.38Q820-182 799-161q-21 21-51.31 21H212.31Z"/></svg>
